X:605
T:Miss Ann Stewart, East Craigs
R:Reel
B:The Athole Collection
M:C|
L:1/8
K:G Minor
F|:DGGA Bcdf|AFcA FGAc|BAGA Bcdf|AfcA BGGA:|
|:Bcd=e fdcB|AFcF dFcF|Bcd=e fdcB|AfcA BGGA:|
|:Bfdf Bfdf|FcAc FcAc|Bfdf Bfdf|AFcA BGGA:|

